X:60
T:Steyrer Tanz in G, nr. 19
C:traditionell
R:Steirer
A:Hallstatt, Salzkammergut
B:Corpus Musicae Popularis Austriacae (COMPA), 5.Band: J.M.Schmalnauer " Tanz Musik", Verlag Boehlau, Wien 1996
S:manuscript des Johann Michael Schmalnauer um 1820
N:im der quelle in G
Z:abc transcription Simon Wascher
F:http://simonwascher.info/TradArchiv/
M:3/4
L:1/8
K:G
V:1
%violino 1mo
P:h:Ap:
(FG)(AG F2) | (GA)(Bcde) | d2 cDFA | d2 BD G2 |\
(FG)(AG F2) | (GA)(Bcde) | d2 cADB | "in D" G4 :|
V:2
%violino 2do
(A,B,)(CB, A,2) | (B,D)(GABc) | B2 ADFA | B2 GD B,2 |\
(A,B,)(CB, A,2) | (B,D)(GABc) | B2 ADFA | B,4 :|
